X:3720
L:1/8
M:4/4
K:G
 d3 d dB (G2 | G)BBB AGEG | Bdde dBGA | BAAG A3 c | Bddd eddB | dedB AGEG | B2 GB AGEG |1 
 DGGF GABc :|2 DGGF GBdc |: BddB (3cde ec | Bdde dBGA | BddB cdef | gedc BAGA | Bddd eddB | 
 dedB AG(3EFG | B2 GB AGEG |1 DGGF GBdc :|

